X:1
T:Iowa City, 87.87 D
T:Iowa City, 87.87 D
T:William H. Hartwell, 1897
T:Public Domain Courtesy of the Cyber Hymnal™
C:William H. Hartwell, 1897
Z:Public Domain
Z:Courtesy of the Cyber Hymnal™
%%score ( 1 2 ) ( 3 4 )
L:1/8
Q:1/4=103
M:4/4
K:Eb
V:1 treble 
V:2 treble 
V:3 bass 
V:4 bass 
V:1
 B(3:2:2[=Ac][_Ad] x2/3 | [Ge]3 [Bd] [Ac]2 [GB]2 | ([GB]3 [FA]) [EG]2 [EG]>[EG] | %3
 [EG]2 [EF]2 [Ec]2 [EF]2 | [DF]6 ([DF]>[DF]) | [DG]3 [F=A] [F=B]2 c2 | %6
 ([Fd]3 [Fc]) [FB]2 [^C=A][CG] | [DF]2 B2 [Ec]3 [EF] | [DB]6 [DB]>[DB] | %9
 [Fd]3 [Ec] [DB]2 ([Ec][Fd]) | [Ec]2 [EB]4 [EB]>[EB] | [=Ec]3 [EB] [EA]2 [EG]2 | [FA]6 [^F=A]2 | %13
 [GB]3 [GB] [Ac]2 [Bd]2 x2 | [ce]>[Bd] [Ac]4 [^Fd][Fc] | [GB]2 [EG]2 [DG]3 [DF] | E6 x11/4 |] x6 |] %18
V:2
 (3:2:1B x7/3 | x8 | x8 | x8 | x8 | x6 (EF) | x8 | x2 (FD) x4 | x8 | x8 | x8 | x8 | x8 | x10 | x8 | %15
 x8 | E6 x11/4 |] x6 |] %18
V:3
 B,2 B, | [E,B,]3 [E,E] [E,E]2 [E,E]2 | [E,B,]4 [E,B,]2 [E,_D]>[E,D] | %3
 [A,,C]2 [A,,C]2 [=A,,C]2 [A,,C]2 | [B,,B,]6 B,>[A,B,] | [G,=B,]3 C [D,G,]2 [C,=A,]2 | %6
 ([B,,B,]3 [C,=A,]) [D,B,]2 [=E,B,][E,B,] | x8 | [F,B,]2 B,2 [F,,F,=A,]3 [F,A,] | %9
 [B,,F,B,]6 [B,,F,]>[B,,B,] | [B,,A,]3 [B,,A,] [B,,A,]2 [B,,A,]2 | [E,A,]2 [E,G,]4 [E,G,]>[E,G,] | %12
 [C,G,]3 [C,C] [C,C]2 [C,C]2 | C6 (F,,2 [^F,=A,]2) | [G,B,]3 [G,B,] [A,C]2 [B,D]2 | %15
 [CE]>[B,D] [A,C]4 [=A,E][A,E] | [B,E]2 B,2 (3:2:1[D,B,] [B,,B,]3 [B,,A,] x/12 |] [E,G,]6 |] %18
V:4
 (3:2:2B,2 B, x | x8 | x8 | x8 | x6 B,3/2 x/ | x3 (F,/E,/) x4 | x8 | x8 | x2 (D,B,,) x4 | x8 | x8 | %11
 x8 | x8 | (^F,2 F,2) x6 | x8 | x8 | x25/12 (3:2:2B, F, x65/12 |] x6 |] %18

